X:1
T:James Gibb editions
T:Ave Maria - Casali
T:#
%%score [ 1 2 3 4 ]
L:1/8
Q:1/4=84
M:4/4
K:F
V:1 treble nm="Soprano" snm="S"
V:2 treble nm="Alto" snm="A"
V:3 treble-8 nm="Tenor" snm="T"
V:4 bass nm="Bass" snm="B"
V:1
"^moderato""^Giovanni Battista Casali\n(1715-1792)"!p! A4 G4"^," |!mf! c4 F2"^Ave Maria" A2 | %2
w: A- ve,|a- ve Ma-|
 (G4 A2 GF | G2 c4 =B2) | c4"^," c3 c | !courtesy!_B4"^," (A3 =B | c4 d4 |[M:4/4] G2 z4 !>!c2- | %8
w: ri\- * * *||a, gra- ti-|a ple\- *||na, gra\-|
 c2 =BB"^accel."[Q:1/4=92] c2 c2"^," |!f! !>!c3 !courtesy!_BAG F2"^," | !>!f3 edc B2- | %11
w: * ti- a ple- na,|gra\- * * * *||
 B2 B)A (G2 F2- | %12
w: * ti- a ple\- *|
[Q:1/4=92]"^rit."[Q:1/4=92][Q:1/4=89][Q:1/4=92][Q:1/4=92] F2 E2)[Q:1/4=85] F4"^," | %13
w: * * na,|
"^a tempo"[Q:1/4=84] z2!mf! c4 =BB | (c3 !courtesy!_B A2 c2 | B4) F4 | z4!f! f4- | c2 e2 d4 | %18
w: gra- ti- a|ple\- * * *|* na,|a-|ve Ma- ri-|
[Q:1/4=84][Q:1/4=84][Q:1/4=84][Q:1/4=84] c4"^," B3 B | A4 (!>!B4- | B2 A2 B2 d2 | c4 B4 | %22
w: a, gra- ti-|a ple\-|||
 A4) =B2"^," c2- | cc =B2 (c4 | G4 G4 | z4 G4 | E2 E2 D4 | %27
w: * na, Do\-|* mi- nus te\-|* cum,|a-|ve Ma- ri-|
"^," C2"^un poco accel."[Q:1/4=92] c3 c =B2 | (c_BAG F4) | E4 z4 | %30
w: a, gra- ti- a|ple\- * * * *|na,|
[Q:1/4=92][Q:1/4=92][Q:1/4=92][Q:1/4=92] z2 c3 c =B2 | c2 c2 c2 cc | c2 =B2) c4 | %33
w: gra- ti- a|ple- na, Do- mi- nus|te\- * cum,|
!f! (!>!c3 _B A4- | A2) AA G4 |"^," G2"^allegro"!mf![Q:1/4=108] c4 =B2 | c2 E2 F2 G2 | E2 C2 D3 D | %38
w: Do\- * *|* mi- nus te-|cum. be- ne-|di- cta tu in|mu- li- e- ri-|
 G4 z4 | z8 | z2 G2 G2 ^F2 |[Q:1/4=108][Q:1/4=108][Q:1/4=108][Q:1/4=108] G2 =B2 c2 d2 | d2 d2 A4 | %43
w: bus,||et be- ne-|di- ctus fru- ctus|ven- tris tu-|
 D4 z4 | z2 G2 G2 ^F2 | G2 =B2 c2 d2 | =B2 c4 !>!B2 |"^," c4!mf! d2 d2 | c2 c2 !>!B4 | A4 B2 c2 | %50
w: i,|et be- ne-|di- ctus fru- ctus|ven- tris tu-|i, fru- ctus|ven- tris tu-|i, fru- ctus|
 A2 A2 G2 G2 | A2 c2 !>!B4 | A4 z4 | z2 c2 c2 =B2 | c2 E2 F2 G2 | E2 C2 !>!D4 | G4 z4 | z8 | %58
w: ven- tris, fru- ctus|ven- tris tu-|i,|et be- ne-|di- ctus fru- ctus|ven- tris tu-|i,||
!f! !>!c3 B (AG F2 | !>!f3 edc) B2"^," | (B3 A G2) F2- | F2 !>!E2 F4 | %62
w: fru- ctus ven\- * *|* * * * tris,|ven\- * * tris|* tu- i,|
 z2"^meno mosso"!p![Q:1/4=96] c2 c4 | c4 !>!A4 | %64
w: et be-|ne- di-|
[Q:1/4=96][Q:1/4=96][Q:1/4=96][Q:1/4=96] A4"^," F4 | G4 G2 A2 | G4 A2"^lento"!p![Q:1/4=72] c2- | %67
w: ctus fru-|ctus ven- tris|tu- i, fru\-|
 c2 B2 B2 A2 | (G2 A2 G4) | !fermata!A8 |] %70
w: * ctus ven- tris|tu\- * *|i.|
V:2
!p! F4 E4 | z8 | z4!mf! F4 | C2 E2 (D4 | E2 FG A2 F2- | F2 E2) F4"^," | E2 G2 F4 | %7
w: A- ve,||a-|ve Ma- ri\-||* * a,|gra- ti- a|
[M:4/4] (E2 F2 G4) | F4!f!"^accel." (!>!G3 F | E2 F3 GAG | F4- FEDC | B,2"^," B4 AA) | %12
w: ple\- * *|na, gra\- *|||* * ti- a|
"^rit." G4 A4"^," |!mf!"^a tempo" G3 G F4 | G4 F4 | z2 B4 BA | (G4 F4) |"^," E4 (F2 G2 | %18
w: ple- na,|gra- ti- a|ple- na,|gra- ti- a|ple\- *|na, gra\- *|
 E2 FF (F2 E2 | F3 _E"^," D2 F2 | _E4 D4 | =E2 F4 E2) | F4 z4 |!f! F4 C2 E2 | D4 E4"^," | %25
w: * ti- a ple\- *||||na,|a- ve Ma-|ri- a,|
 F2 FE D4 | E4 z2 G2- | GG ^F2 G4 | G2 z2 =F4 | C2 E2 D4 | E2 G4 G2 | G4 A4 | G2!f! !>!G3 FED | %33
w: gra- ti- a ple-|na, gra\-|* ti- a ple-|na, a-|ve Ma- ri-|a, gra- ti-|a ple-|na,~, Do\- * * *|
 C2 !>!c3 BAG | F3 E D2) EE | G8 | G4 z4 | z8 | z2!mf! C4 =B,2 | C2 E2 F2 G2 | E2 D2 C3 C | %41
w: |* * * mi- nus|te-|cum,||be- ne-|di- cta tu in|mu- li- e- ri-|
 =B,2 G2 A2 A2 | =B2 G2 z4 | z2 G2 G2 ^F2 | G2"^," D2 C2 C2 | (=B,2 G2) A4 | (G4 =F4) | %47
w: bus, et be- ne-|di- ctus|et be- ne-|di- ctus fru- ctus|ven\- * tris|tu\- *|
"^," E4!mf! F2 G2 | (E2 F4) E2 | (F4 G4) | C4 z4 | z2 F2 F2 E2 | F2 C2 B,2 C2 | C2 G2 (F4 | %54
w: i, fru- ctus|ven\- * tris|tu\- *|i,|et be- ne-|di- ctus fru- ctus|ven- tris tu\-|
 E4 D4) | C4 z4 | z2 C2 C2 =B,2 | C2 E2 F2"^," G2 |!f! (G2 !>!c3 BAG | F4-"^," F EDC | %60
w: |i,|et be- ne-|di- ctus fru- ctus|ven\- * * * *||
"^," B,2 B4 A2) | G4"^," A2!p! A2 | G2 G2 A4 | G4"^," F4 | E4"^," D4- | D2 G2 (E2 F2- | %66
w: * * tris|tu- i, et|be- ne- di-|ctus fru-|ctus ven\-|* tris tu\- *|
 F2 E2)"^," F2!p! A2- | A2 G2 G2 F2 | (E2 F4 E2) | !fermata!F8 |] %70
w: * * i, fru\-|* ctus ven- tris|tu\- * *|i.|
V:3
!p! c4 c4 | z8 | z8 | z8 |!mf! c4 F2 A2 | (G4 A2 GF | G2 c4 =B2 | %7
w: A- ve,||||a- ve Ma-|ri\- * * *||
[M:4/4][K:treble-8] c4"^," =B2 cc | d4"^accel." e4 | z4!f! !>!c3 !courtesy!_B | AG F2"^," !>!f3 e | %11
w: a, gra- ti- a|ple- na,|gra\- *||
 d4 c2 c)c |"^rit." c4 c2!mf! f2 |"^a tempo" c2 e2 d4 | e4 z2 !>!f2- | f2 ee (fedc | =B2 c4 B2 | %17
w: * * ti- a|ple- ria, a-|ve Ma- ri-|a, gra\-|* ti- a ple\- * * *||
"^," c2) (c4 !courtesy!_B2- | B2 AA G4 | F4 z4 | z8 | z4!f! B4 | F2 A2 (G4 | F4) G4 | z4 z2 c2- | %25
w: na, gra\- *|* ti- a ple-|na,||a-|ve Ma- ri\-|* a,|gra\-|
 c2 cc c2 =B2) | c2"^," c3 c =B2 | A4 d4 | z2 c3 =B B2 | c4 G4 | z8 | c3 c A4 | d4 e4 | %33
w: * ti- a ple\- *|na, gra- ti- a|ple- na,|gra- ti- a|ple- na,||Do- mi- nus|te- cum.|
 z4 z2!f! (!>!f2- | fedc =B2) cc | (=B2 c2 d4) | e4 z4 | z2!mf! c4 =B2 | c2 e2 f2 f2 | e2 c2 d3 d | %40
w: Do\-|* * * * * mi- nus|te\- * *|cum,|be- ne-|di- cta tu in|mu- li- e- ri-|
 G4 z4 | z2 G2 G2 ^F2 | G2 =B2 c2 d2 | =B2 G2 !>!A4 | D4 z4 | z8 | z8 | z2!mf! c4 _B2 | B2 A2 G4 | %49
w: bus,|et be- ne-|di- ctus fru- ctus|ven- tris tu-|i,|||fru- ctus|ven- tris tu-|
 F4 z4 | z2 f2 f2 e2 | f2 A2 B2 B2 | (c2 A2 G4 | A2 c2 !>!d4 | G4 z4 | z2 c2 c2 =B2 | c2 e2 f2 f2 | %57
w: ì,|et be- ne-|di- ctus fru- ctus|ven\- * *|* tris tu-|i,|et be- ne-|di\-ctus * fru- ctus|
 e2 e2 !>!d4 | e2 z2!f! !>!c3 B | AG F2"^," !>!f3 e | dc B2 c2 c2) | c4 c4 | z4 z2!p! f2- | %63
w: ven- tris tu-|i, fru- ctus|ven\- * * * *|* * * * tris|tu- i.|et|
 f2 e4 d2- | d2 c4"^," B2 | B2 d2 c2 c2 | c4"^," c4 |!p! d3 d c2 c2 | c8 | !fermata!c8 |] %70
w: * be- ne\-|* di- ctus|fru- ctus ven- tris|tu- i,|fru- ctus ven- tris|tu-|i.|
V:4
!p! F,4 C,4 | z8 | z8 | z8 | z8 | z4!mf! F,4 | C,2 E,2 D,4 |[M:4/4] C,2"^," F,4 E,E, | %8
w: A- ve,|||||a-|ve Ma- ri-|a, gra- ti- a|
 D,4"^accel." C,2"^,"!f! !>!C2- | (CB,A,G, F,4- | F,E,D,C, B,,2"^," !>!B,2- | B,A,G,F, E,2 F,)F, | %12
w: ple- na, £ra\-|||* * * * * ti- a|
"^rit." C,4 F,4 | z8 |!f! C4 F,2 A,2 | G,4 F,2"^," !>!F,2- | F,2 E,E, D,4 | C,4 z4 | z8 | %19
w: ple- na,||a- ve Ma-|ri- a, gra\-|* ti- a ple-|na,||
!f! F,4 B,,2 D,2 | C,4 B,,2"^," B,2- | B,2 A,A, G,4 | F,2"^," F,3 F, E,2 | D,4 C,2"^," C2- | %24
w: a- ve Ma-|ri- a, gra\-|* ti- a ple-|na, Do- mi- nus|te- cum, Do\-|
 CC =B,2 (C4 | F,4 G,4 | C,4) z4 | z4 G,4 | C,2 E,2 D,4 | C,2"^," C3 C =B,2 | C4 G,4 | E,3 E, F,4 | %32
w: * mi- nus te\-||cum,|a-|ve Ma- ri-|a, gra- ti- a|ple- na,|Do- mi- nus|
 G,4 C,2"^,"!f! (C2- | CB,A,G, F,4- | F,6) E,C, | G,8 | C,2"^,"!mf! C4 =B,2 | C2 E,2 F,2 G,2 | %38
w: te- cum, Do\-||* mi- nus|te-|cum, be- ne-|di- cta tu in|
 E,2 C,2 D,3 D, |"^," C,2 C4 =B,2 | (C2 =B,2) A,4 | G,4 z4 | z2 G,2 G,2 ^F,2 | G,2 =B,,2 C,2 D,2 | %44
w: mu- li- e- ri-|bus, be- ne-|di\- * cta|tu,|et be- ne-|di- ctus fru- ctus|
 =B,,2 G,,2 !>!A,,4 |"^," G,,2 !>!G,4 !courtesy!=F,2 | F,2 E,2 !>!D,4 | C,4 z4 | z8 | %49
w: ven- tris tu-|i, fru- ctus|ven- tris tu-|i,||
 z2!mf! F,2 F,2 E,2 | F,2 A,2 B,2 C2 | A,2 F,2 !>!G,4 | F,2 F,4 E,2 | F,2 E,2 !>!D,4 | %54
w: et be- ne-|di- ctus fru- ctus|ven- tris tu-|i, fru- ctus|ven- tris tu-|
 C,2"^," C2 C2 =B,2 | C2 E,2 F,2 G,2 | E,2 C,2 D,4 | C,2"^," !>!C4 =B,2 | %58
w: i, et be- ne-|di\-ctus * fru- ctus|ven- tris tu-|i, fru- ctus|
!f! (C!courtesy!_B,A,G, F,4- | F,E,D,C, B,,2"^," !>!B,2- | B,A,G,F, E,2 F,2) | C,4 F,2!p! F,2 | %62
w: ven\- * * * *||* * * * * tris|tu- i, et|
 F,2 E,2 F,4 | C,4"^," D,4 | A,,4"^," (B,,4- | B,,4 C,2) F,2 | C,4"^," F,4 |!p! B,,3 B,, C,2 F,2 | %68
w: be- ne- di-|ctus fru-|cet~us ven\-|* * tris|tu- i,|fru- ctus ven- tris|
 C,8 | !fermata!F,,8 |] %70
w: tu-|i.|

